Numix-GalliumOS/16/status/pamac-cleanup.svg

<?xml version="1.0" encoding="UTF-8" standalone="no"?>
<svg
   xmlns:dc="http://purl.org/dc/elements/1.1/"
   xmlns:cc="http://creativecommons.org/ns#"
   xmlns:rdf="http://www.w3.org/1999/02/22-rdf-syntax-ns#"
   xmlns:svg="http://www.w3.org/2000/svg"
   xmlns="http://www.w3.org/2000/svg"
   xmlns:sodipodi="http://sodipodi.sourceforge.net/DTD/sodipodi-0.dtd"
   xmlns:inkscape="http://www.inkscape.org/namespaces/inkscape"
   width="16"
   height="16"
   viewBox="0 0 16 16"
   id="svg2"
   version="1.1"
   inkscape:version="0.91 r"
   sodipodi:docname="pamac-cleanup.svg">
  <metadata
     id="metadata10">
    <rdf:RDF>
      <cc:Work
         rdf:about="">
        <dc:format>image/svg+xml</dc:format>
        <dc:type
           rdf:resource="http://purl.org/dc/dcmitype/StillImage" />
        <dc:title />
      </cc:Work>
    </rdf:RDF>
  </metadata>
  <defs
     id="defs8" />
  <sodipodi:namedview
     pagecolor="#ffffff"
     bordercolor="#666666"
     borderopacity="1"
     objecttolerance="10"
     gridtolerance="10"
     guidetolerance="10"
     inkscape:pageopacity="0"
     inkscape:pageshadow="2"
     inkscape:window-width="1366"
     inkscape:window-height="747"
     id="namedview6"
     showgrid="true"
     inkscape:zoom="16"
     inkscape:cx="-5.4517103"
     inkscape:cy="14.27832"
     inkscape:window-x="0"
     inkscape:window-y="21"
     inkscape:window-maximized="1"
     inkscape:current-layer="svg2">
    <inkscape:grid
       type="xygrid"
       id="grid4138" />
  </sodipodi:namedview>
  <path
     style="fill:#c28e5c"
     d="M 5 2 L 3 5 L 7.5 5 L 7.5 2 L 5 2 z M 8.5 2 L 8.5 5 L 13 5 L 11 2 L 8.5 2 z M 3 6 L 3 13 L 9.8789062 13 L 10.378906 12.5 L 8.9648438 11.085938 L 11.085938 8.9648438 L 12.5 10.378906 L 13 9.8789062 L 13 6 L 3 6 z "
     id="path4" />
  <path
     style="fill:#ee545b;fill-opacity:1"
     d="M 13.914214,10.37868 12.5,11.792893 11.085786,10.37868 10.37868,11.085786 11.792893,12.5 10.37868,13.914214 11.085786,14.62132 12.5,13.207107 13.914214,14.62132 14.62132,13.914214 13.207107,12.5 14.62132,11.085786 Z"
     id="path4-7"
     inkscape:connector-curvature="0"
     sodipodi:nodetypes="ccccccccccccc" />
</svg>

<svg xmlns="http://www.w3.org/2000/svg" viewBox="0 0 16 16">
 <path d="m 5 2 l -2 3 l 4.5 0 l 0 -3 l -2.5 0 z m 3.5 0 l 0 3 l 4.5 0 l -2 -3 l -2.5 0 z m -5.5 4 l 0 7 l 6.879 0 l 0.5 -0.5 l -1.414 -1.414 l 2.121 -2.121 l 1.414 1.414 l 0.5 -0.5 l 0 -3.879 l -10 0 z" style="fill:#c28e5c"/>
 <path d="m 13.914 10.379 -1.414 1.414 -1.414 -1.414 -0.707 0.707 1.414 1.414 -1.414 1.414 0.707 0.707 1.414 -1.414 1.414 1.414 0.707 -0.707 -1.414 -1.414 1.414 -1.414" style="fill:#ee545b;fill-opacity:1"/>
</svg>
